X:1
T:Bawardy, CMD
T:Bawardy, CMD
T:Hubert Platt Main, 1902
T:Public Domain Courtesy of the Cyber Hymnal™
C:Hubert Platt Main, 1902
Z:Public Domain
Z:Courtesy of the Cyber Hymnal™
%%score ( 1 2 ) ( 3 4 )
L:1/8
Q:1/4=90
M:3/4
K:D
V:1 treble 
V:2 treble 
V:3 bass 
V:4 bass 
V:1
 [FA]2 | [FA]>[DF] [FA]3 [Ad] | [Ge][Gc] [Fd]2 [FA]2 | [FB]3 [FB] [EA][DF] | [CE]4 [EA]2 | %5
 [FA]>[DF] [FA]3 [Ad] | [Ge][Gc] [Fd]2 [GB]2 | [FA]3 [Fd] [Gd][Gc] | [Fd]4 [Ad]2 | %9
 [Gc]>[FB] [EA][CG] [CF][CG] | [=CA]4 D2 | [DB]3 [FA] [EG][DF] | [CE]4 [CA]2 | %13
 [DA]>[DF] [FA]3 [Ad] | [Ge][Gc] [Fd]2 [^EB]2 | [FA]3 [Fd] [Gd][Gc] | [Fd]4 |] %17
V:2
 x2 | x6 | x6 | x6 | x6 | x6 | x6 | x6 | x6 | x6 | x4 D2 | x6 | x6 | x6 | x6 | x6 | x4 |] %17
V:3
 [D,D]2 | [D,D]>[D,A,] [D,D]3 [F,D] | [A,C][A,E] [D,D]2 [D,D]2 | [B,,D]3 [B,,D] [C,A,][D,A,] | %4
 [A,,A,]4 [A,,C]2 | [D,D]>[D,A,] [D,D]3 [F,D] | [A,C][A,E] [B,D]2 [G,D]2 | %7
 [A,D]3 A, [A,,E][A,,A,] | [D,A,]4 [F,D]2 | [A,E]>[A,D] [A,C][A,,B,] [A,,A,][A,,G,] | %10
 [D,F,]4 [F,=C]2 | [G,B,]3 [D,=C] [E,B,][E,^G,] | [A,,A,]4 [A,,G,]2 | [D,F,]>[D,A,] [D,D]3 [F,D] | %14
 [A,C][A,E] [B,D]2 [^G,D]2 | [A,D]3 A, [A,,E][A,,A,] | [D,A,]4 |] %17
V:4
 x2 | x6 | x6 | x6 | x6 | x6 | x6 | x3 A, x2 | x6 | x6 | x6 | x6 | x6 | x6 | x6 | x3 A, x2 | x4 |] %17

